img/paper-robot.svg

<svg width="42" height="52.5" xmlns="http://www.w3.org/2000/svg" version="1.1">

 <g>
  <title>Layer 1</title>
  <path fill="#ffffff" id="svg_1" d="m13.87,28.25c-0.11,0.6 0.16,1.09 0.76,1.3c0.6,0.16 1.19,-0.16 1.36,-0.76c0.22,-0.6 -0.11,-1.19 -0.71,-1.36c-0.6,-0.21 -1.3,0.22 -1.41,0.82l0,0zm-5.43,0.97l0.6,-3.2l-1.3,-0.16c-1.14,-0.11 -3.15,1.19 -2.77,2.44c0.05,0.27 0.33,0.49 0.87,0.54l2.6,0.38zm1.52,-3.09l-0.54,3.2l1.63,0.22c2.22,0.33 2.6,-2.93 0.54,-3.2l-1.63,-0.22zm4.62,-11.77l1.79,2.5c0.76,1.09 2.39,-0.11 1.63,-1.19l-1.79,-2.5l-1.63,1.19zm-2.5,-3.53l1.95,2.71l1.63,-1.14l-1.95,-2.77l-1.63,1.2zm-2.33,-3.26l1.79,2.5l1.63,-1.19l-1.79,-2.5c-0.77,-1.09 -2.45,0.05 -1.63,1.19l0,0zm9.71,12.16c0.54,-0.27 0.76,-0.98 0.49,-1.52c-0.27,-0.49 -0.98,-0.71 -1.52,-0.43c-0.54,0.27 -0.71,0.98 -0.43,1.47c0.27,0.53 0.92,0.75 1.46,0.48l0,0zm7.27,13.73l-0.33,0.27c-0.33,0.22 -0.38,0.65 -0.16,0.98l2.06,2.93c0.27,0.33 0.71,0.38 1.03,0.16l7.92,-5.64c0.33,-0.27 0.38,-0.71 0.16,-1.03l-2.06,-2.88c-0.22,-0.33 -0.65,-0.43 -0.98,-0.16l-0.33,0.22c0.11,0.71 0.05,1.52 -0.16,2.28c-0.81,2.5 -3.74,4.07 -6.24,3.26c-0.31,-0.07 -0.58,-0.23 -0.91,-0.39l0,0zm3.1,-3.04c0.71,-0.38 0.98,-1.3 0.6,-2.01c-0.38,-0.71 -1.25,-1.03 -2.01,-0.65c-0.71,0.38 -0.98,1.3 -0.6,2.01c0.38,0.76 1.25,1.03 2.01,0.65l0,0zm-6.03,-13.79c0.54,-0.27 0.76,-0.92 0.49,-1.47c-0.33,-0.54 -0.98,-0.76 -1.52,-0.49c-0.54,0.27 -0.76,0.98 -0.49,1.52c0.33,0.55 0.98,0.72 1.52,0.44l0,0zm-7.05,-11.01l0.92,1.74l1.79,-0.92l-0.98,-1.74c-0.59,-1.2 -2.38,-0.22 -1.73,0.92l0,0zm5.04,5.15l-1.79,0.93l0.92,1.74c0.65,1.19 2.44,0.22 1.79,-0.92l-0.92,-1.75zm2.28,-4.55l1.9,-0.76l-0.32,-0.76c-0.54,-1.25 -2.33,-0.43 -1.9,0.76l0.32,0.76zm3.31,2.87l-1.85,0.76l0.27,0.76c0.22,0.54 0.87,0.76 1.36,0.54c0.6,-0.27 0.65,-0.87 0.54,-1.3l-0.32,-0.76zm-2.22,-0.16l1.9,-0.71l-0.76,-1.84l-1.9,0.71l0.76,1.84zm3.53,5.86c0.54,-0.27 0.76,-0.92 0.49,-1.47c-0.27,-0.54 -0.98,-0.76 -1.52,-0.49c-0.49,0.27 -0.71,0.98 -0.43,1.52c0.26,0.55 0.91,0.71 1.46,0.44l0,0zm-4.45,15.36l-4.18,-2.82l-2.5,0.49l3.69,2.44c0.98,0.6 2.06,0.76 3.09,0.33c-0.05,-0.17 -0.05,-0.28 -0.1,-0.44l0,0zm-3.8,-5.7l-1.03,0.76c-0.16,0.11 -0.43,0.11 -0.6,0l-2.33,-1.74c-0.54,1.09 -0.49,2.5 0.22,3.53l3.42,-0.65l0.33,0.11l3.69,2.44c0,-0.43 0.11,-0.87 0.22,-1.3l-3.92,-3.15zm8.52,-8.36l0.6,3.26c0.05,0.16 -0.05,0.38 -0.22,0.49l-0.98,0.71l1.74,3.69c0.71,0.11 1.36,0.43 1.95,0.87c0.81,-1.03 0.54,-2.39 0.11,-3.53l-1.52,-3.91c-0.33,-0.76 -0.92,-1.25 -1.68,-1.58l0,0zm-3.58,9.66l-2.39,-3.09l-0.6,0.38c-0.16,0.16 -0.49,0.11 -0.6,-0.11l-1.9,-2.28c-0.81,0.54 -2.17,1.36 -2.82,2.06l2.06,1.52l1.03,-0.76c0.16,-0.11 0.38,-0.11 0.54,0l4.02,3.2c0.22,-0.32 0.44,-0.59 0.66,-0.92l0,0zm1.41,-1.03l-2.39,-3.69c-0.16,-0.22 -0.11,-0.49 0.11,-0.65l0.6,-0.43l-1.19,-2.17l-3.26,2.28l1.57,1.95l0.54,-0.38c0.22,-0.16 0.49,-0.11 0.65,0.05l2.66,3.42c0.22,-0.11 0.43,-0.27 0.71,-0.38l0,0zm-2.12,-7.49l1.47,2.66c0.11,0.22 0.05,0.49 -0.16,0.6l-0.54,0.38l2.22,3.47c0.43,-0.16 0.87,-0.22 1.36,-0.22l-1.68,-3.53c-0.11,-0.22 -0.05,-0.49 0.16,-0.6l1.09,-0.81l-0.65,-3.31c-0.81,-0.11 -1.57,0.16 -2.22,0.6l-1.05,0.76zm-18.18,-1.14l1.3,-1.57l-1.63,-1.41c-0.98,-0.87 -2.39,0.65 -1.36,1.52l1.69,1.46zm5.05,1.68l-1.3,1.52l1.68,1.41c1.03,0.92 2.28,-0.65 1.3,-1.52l-1.68,-1.41zm-2.01,0.87l1.3,-1.52l-2.28,-1.95l-1.3,1.52l2.28,1.95zm5.86,4.29c0.54,-0.27 0.76,-0.92 0.49,-1.47c-0.27,-0.54 -0.98,-0.76 -1.52,-0.49s-0.76,0.98 -0.43,1.52c0.27,0.55 0.92,0.71 1.46,0.44l0,0zm4.18,-12.05l1.74,-0.98l-1.41,-2.66l-1.8,0.98l1.47,2.66zm8.36,22.03c2.12,0.71 4.4,-0.49 5.05,-2.6c0.65,-2.17 -0.54,-4.4 -2.66,-5.05c-2.12,-0.65 -4.4,0.49 -5.05,2.66c-0.65,2.06 0.48,4.34 2.66,4.99l0,0zm2.33,-1.68c-1.19,0.65 -2.66,0.16 -3.31,-0.98c-0.6,-1.19 -0.16,-2.71 1.03,-3.31c1.19,-0.65 2.66,-0.16 3.31,1.03c0.6,1.2 0.16,2.67 -1.03,3.26l0,0z"/>
  <text id="svg_2" font-family="'Helvetica Neue', Helvetica, Arial-Unicode, Arial, Sans-serif" font-weight="bold" font-size="5px" fill="#ffff" y="57" x="0">Created by Besokpagi</text>
  <text id="svg_3" font-family="'Helvetica Neue', Helvetica, Arial-Unicode, Arial, Sans-serif" font-weight="bold" font-size="5px" fill="#fff" y="62" x="0">from the Noun Project</text>
 </g>
</svg>

<?xml version="1.0" encoding="utf-8"?>
<svg version="1.1" x="0px" y="0px" viewBox="0 0 42 52.5" style="enable-background:new 0 0 42 42;" xmlns="http://www.w3.org/2000/svg">
  <style type="text/css">
	.st0{fill-rule:evenodd;clip-rule:evenodd;}
</style>
  <path d="M13.87,28.25c-0.11,0.6,0.16,1.09,0.76,1.3c0.6,0.16,1.19-0.16,1.36-0.76c0.22-0.6-0.11-1.19-0.71-1.36  C14.68,27.22,13.98,27.65,13.87,28.25L13.87,28.25z M8.44,29.22l0.6-3.2l-1.3-0.16c-1.14-0.11-3.15,1.19-2.77,2.44  c0.05,0.27,0.33,0.49,0.87,0.54L8.44,29.22z M9.96,26.13l-0.54,3.2l1.63,0.22c2.22,0.33,2.6-2.93,0.54-3.2L9.96,26.13z M14.58,14.36  l1.79,2.5c0.76,1.09,2.39-0.11,1.63-1.19l-1.79-2.5L14.58,14.36z M12.08,10.83l1.95,2.71l1.63-1.14l-1.95-2.77L12.08,10.83z   M9.75,7.57l1.79,2.5l1.63-1.19l-1.79-2.5C10.61,5.29,8.93,6.43,9.75,7.57L9.75,7.57z M19.46,19.73c0.54-0.27,0.76-0.98,0.49-1.52  c-0.27-0.49-0.98-0.71-1.52-0.43c-0.54,0.27-0.71,0.98-0.43,1.47C18.27,19.78,18.92,20,19.46,19.73L19.46,19.73z M26.73,33.46  l-0.33,0.27c-0.33,0.22-0.38,0.65-0.16,0.98l2.06,2.93c0.27,0.33,0.71,0.38,1.03,0.16l7.92-5.64c0.33-0.27,0.38-0.71,0.16-1.03  l-2.06-2.88c-0.22-0.33-0.65-0.43-0.98-0.16l-0.33,0.22c0.11,0.71,0.05,1.52-0.16,2.28c-0.81,2.5-3.74,4.07-6.24,3.26  C27.33,33.78,27.06,33.62,26.73,33.46L26.73,33.46z M29.83,30.42c0.71-0.38,0.98-1.3,0.6-2.01c-0.38-0.71-1.25-1.03-2.01-0.65  c-0.71,0.38-0.98,1.3-0.6,2.01C28.2,30.53,29.07,30.8,29.83,30.42L29.83,30.42z M23.8,16.63c0.54-0.27,0.76-0.92,0.49-1.47  c-0.33-0.54-0.98-0.76-1.52-0.49c-0.54,0.27-0.76,0.98-0.49,1.52C22.61,16.74,23.26,16.91,23.8,16.63L23.8,16.63z M16.75,5.62  l0.92,1.74l1.79-0.92L18.48,4.7C17.89,3.5,16.1,4.48,16.75,5.62L16.75,5.62z M21.79,10.77L20,11.7l0.92,1.74  c0.65,1.19,2.44,0.22,1.79-0.92L21.79,10.77z M24.07,6.22l1.9-0.76L25.65,4.7c-0.54-1.25-2.33-0.43-1.9,0.76L24.07,6.22z   M27.38,9.09l-1.85,0.76l0.27,0.76c0.22,0.54,0.87,0.76,1.36,0.54c0.6-0.27,0.65-0.87,0.54-1.3L27.38,9.09z M25.16,8.93l1.9-0.71  L26.3,6.38l-1.9,0.71L25.16,8.93z M28.69,14.79c0.54-0.27,0.76-0.92,0.49-1.47c-0.27-0.54-0.98-0.76-1.52-0.49  c-0.49,0.27-0.71,0.98-0.43,1.52C27.49,14.9,28.14,15.06,28.69,14.79L28.69,14.79z M24.24,30.15l-4.18-2.82l-2.5,0.49l3.69,2.44  c0.98,0.6,2.06,0.76,3.09,0.33C24.29,30.42,24.29,30.31,24.24,30.15L24.24,30.15z M20.44,24.45l-1.03,0.76  c-0.16,0.11-0.43,0.11-0.6,0l-2.33-1.74c-0.54,1.09-0.49,2.5,0.22,3.53l3.42-0.65l0.33,0.11l3.69,2.44c0-0.43,0.11-0.87,0.22-1.3  L20.44,24.45z M28.96,16.09l0.6,3.26c0.05,0.16-0.05,0.38-0.22,0.49l-0.98,0.71l1.74,3.69c0.71,0.11,1.36,0.43,1.95,0.87  c0.81-1.03,0.54-2.39,0.11-3.53l-1.52-3.91C30.31,16.91,29.72,16.42,28.96,16.09L28.96,16.09z M25.38,25.75l-2.39-3.09l-0.6,0.38  c-0.16,0.16-0.49,0.11-0.6-0.11l-1.9-2.28c-0.81,0.54-2.17,1.36-2.82,2.06l2.06,1.52l1.03-0.76c0.16-0.11,0.38-0.11,0.54,0l4.02,3.2  C24.94,26.35,25.16,26.08,25.38,25.75L25.38,25.75z M26.79,24.72l-2.39-3.69c-0.16-0.22-0.11-0.49,0.11-0.65l0.6-0.43l-1.19-2.17  l-3.26,2.28l1.57,1.95l0.54-0.38c0.22-0.16,0.49-0.11,0.65,0.05l2.66,3.42C26.3,24.99,26.51,24.83,26.79,24.72L26.79,24.72z   M24.67,17.23l1.47,2.66c0.11,0.22,0.05,0.49-0.16,0.6l-0.54,0.38l2.22,3.47c0.43-0.16,0.87-0.22,1.36-0.22l-1.68-3.53  c-0.11-0.22-0.05-0.49,0.16-0.6l1.09-0.81l-0.65-3.31c-0.81-0.11-1.57,0.16-2.22,0.6L24.67,17.23z M6.49,16.09l1.3-1.57l-1.63-1.41  c-0.98-0.87-2.39,0.65-1.36,1.52L6.49,16.09z M11.54,17.77l-1.3,1.52l1.68,1.41c1.03,0.92,2.28-0.65,1.3-1.52L11.54,17.77z   M9.53,18.64l1.3-1.52l-2.28-1.95l-1.3,1.52L9.53,18.64z M15.39,22.93c0.54-0.27,0.76-0.92,0.49-1.47  c-0.27-0.54-0.98-0.76-1.52-0.49s-0.76,0.98-0.43,1.52C14.2,23.04,14.85,23.2,15.39,22.93L15.39,22.93z M19.57,10.88l1.74-0.98  l-1.41-2.66L18.1,8.22L19.57,10.88z M27.93,32.91c2.12,0.71,4.4-0.49,5.05-2.6c0.65-2.17-0.54-4.4-2.66-5.05  c-2.12-0.65-4.4,0.49-5.05,2.66C24.62,29.98,25.75,32.26,27.93,32.91L27.93,32.91z M30.26,31.23c-1.19,0.65-2.66,0.16-3.31-0.98  c-0.6-1.19-0.16-2.71,1.03-3.31c1.19-0.65,2.66-0.16,3.31,1.03C31.89,29.17,31.45,30.64,30.26,31.23L30.26,31.23z"/>
  <text x="0" y="57" fill="#ffff" font-size="5px" font-weight="bold" font-family="'Helvetica Neue', Helvetica, Arial-Unicode, Arial, Sans-serif" style="white-space: pre;">Created by Besokpagi</text>
  <text x="0" y="62" fill="#fff" font-size="5px" font-weight="bold" font-family="'Helvetica Neue', Helvetica, Arial-Unicode, Arial, Sans-serif" style="white-space: pre;">from the Noun Project</text>
</svg>
